svgs/sharp-regular/person-pregnant.svg

<svg xmlns="http://www.w3.org/2000/svg" viewBox="0 0 384 512"><!--! Font Awesome Pro 6.6.0 by @fontawesome - https://fontawesome.com License - https://fontawesome.com/license (Commercial License) Copyright 2024 Fonticons, Inc. --><path d="M240 48a48 48 0 1 0 -96 0 48 48 0 1 0 96 0zM96 384l32 0 0 104 0 24 48 0 0-24 0-104 16 0 16 0 0 104 0 24 48 0 0-24 0-104 48 0 48 0 0-48 0-16c0-46.8-33.4-85.7-77.7-94.3L256 128l-40 0-24 0-43.4 0-15.6 0-14.4 0-6.8 12.7-76.9 144L23.5 305.9l42.3 22.6 11.3-21.2L96 272.1 96 336l0 48zM216 176l.2 0 11 58.6 6 32.1 32.1 6.2c22.1 4.3 38.8 23.8 38.8 47.1l0 16-112 0-48 0 0-153.8s0 0 0 0l0-6.2 3.3 0 28.7 0 16 0 24 0z"/></svg>

<svg xmlns="http://www.w3.org/2000/svg" viewBox="0 0 384 512"><!--! Font Awesome Pro 6.4.2 by @fontawesome - https://fontawesome.com License - https://fontawesome.com/license (Commercial License) Copyright 2023 Fonticons, Inc. --><path d="M240 48a48 48 0 1 0 -96 0 48 48 0 1 0 96 0zM96 384h32V488v24h48V488 384h16 16V488v24h48V488 384h48 48V336 320c0-46.8-33.4-85.7-77.7-94.3L256 128H216 192 148.6 132.9 118.5l-6.8 12.7-76.9 144L23.5 305.9l42.3 22.6 11.3-21.2L96 272.1V336v48zM216 176h.2l11 58.6 6 32.1 32.1 6.2c22.1 4.3 38.8 23.8 38.8 47.1v16H192 144V182.2l0 0V176h3.3H176h16 24z"/></svg>
